X: 29916
T: O'Shaughnessy's
R: jig
M: 6/8
K: Amajor
aAA gAA|fec ABc|BBB EGB|Acf efg|
aAA gAA|fec ABc|BBB EGB|1 BAG Ace:|2 BAG AAA||
K:Emaj
B2 e gfe|c2 a aga|d2 b b_b=b|gec B3|
B2 e gfe|c2 a aga|b_b=b gfd|1 fed e3:|2 fed efg||

